src/assets/images/icons/computer.svg

<svg width="400" height="400.649" xmlns="http://www.w3.org/2000/svg">
    <path class="icon__primary-shape" fill="#67daff" d="M18.056 7.414C11.173 8.912 4.26 15.228 2.344 21.77.748 27.218.801 22.884.8 148.6c0 134.185-.233 123.692 2.896 130.095 2.249 4.603 7.279 9.239 11.579 10.672 4.307 1.436 3.914 1.433 183.525 1.433 171.886 0 179.81-.05 182.6-1.144 7.025-2.756 11.457-7.471 14.073-14.97 1.159-3.324 1.131-248.509-.029-251.886-1.762-5.13-5.883-10.873-8.892-12.39a25.706 25.706 0 0 1-2.152-1.243c-.55-.363-1.99-.997-3.2-1.408-2.952-1.003-358.566-1.341-363.144-.345M372.2 148.8v117.4l-173.5.1-173.5.101V31.199l173.5.101 173.5.1v117.4M161.914 336.5l-.139 20.5-1.1 3.286c-2.475 7.389-8.355 13.511-15.474 16.114-3.572 1.305-7.531 1.6-21.53 1.602-14.313.003-15.215.1-18.168 1.974-6.705 4.251-7.229 14.626-.981 19.392l1.354 1.032h186.015l1.985-1.954c4.502-4.431 4.585-12.279.177-16.687-3.664-3.665-2.873-3.523-21.253-3.805-9.352-.144-16.792-.426-17.6-.668-3.394-1.017-4.095-1.286-6.089-2.337-5.315-2.804-9.811-7.816-11.794-13.149-1.619-4.354-1.688-5.399-1.703-25.9L235.6 316h-73.548l-.138 20.5"/>
</svg>

<svg id="svg" version="1.1" width="400" height="400.64935064935065" viewBox="0 0 400 400.64935064935065"
     xmlns="http://www.w3.org/2000/svg" xmlns:xlink="http://www.w3.org/1999/xlink">
    <g id="svgg">
        <path id="path0"
              d="M18.056 7.414 C 11.173 8.912,4.260 15.228,2.344 21.770 C 0.748 27.218,0.801 22.884,0.800 148.600 C 0.800 282.785,0.567 272.292,3.696 278.695 C 5.945 283.298,10.975 287.934,15.275 289.367 C 19.582 290.803,19.189 290.800,198.800 290.800 C 370.686 290.800,378.610 290.750,381.400 289.656 C 388.425 286.900,392.857 282.185,395.473 274.686 C 396.632 271.362,396.604 26.177,395.444 22.800 C 393.682 17.670,389.561 11.927,386.552 10.410 C 385.918 10.090,384.950 9.531,384.400 9.167 C 383.850 8.804,382.410 8.170,381.200 7.759 C 378.248 6.756,22.634 6.418,18.056 7.414 M372.200 148.800 L 372.200 266.200 198.700 266.300 L 25.200 266.401 25.200 148.800 L 25.200 31.199 198.700 31.300 L 372.200 31.400 372.200 148.800 M161.914 336.500 L 161.775 357.000 160.675 360.286 C 158.200 367.675,152.320 373.797,145.201 376.400 C 141.629 377.705,137.670 378.000,123.671 378.002 C 109.358 378.005,108.456 378.102,105.503 379.976 C 98.798 384.227,98.274 394.602,104.522 399.368 L 105.876 400.400 198.883 400.400 L 291.891 400.400 293.876 398.446 C 298.378 394.015,298.461 386.167,294.053 381.759 C 290.389 378.094,291.180 378.236,272.800 377.954 C 263.448 377.810,256.008 377.528,255.200 377.286 C 251.806 376.269,251.105 376.000,249.111 374.949 C 243.796 372.145,239.300 367.133,237.317 361.800 C 235.698 357.446,235.629 356.401,235.614 335.900 L 235.600 316.000 198.826 316.000 L 162.052 316.000 161.914 336.500 "
              stroke="none" fill="#3cdddd" fill-rule="evenodd"></path>
    </g>
</svg>
